humanity-icon-theme/Humanity/mimes/16/application-vnd.ms-powerpoint.svg

<?xml version="1.0" encoding="UTF-8" standalone="no"?>
<!-- Created with Inkscape (http://www.inkscape.org/) -->
<svg
   xmlns:svg="http://www.w3.org/2000/svg"
   xmlns="http://www.w3.org/2000/svg"
   xmlns:xlink="http://www.w3.org/1999/xlink"
   version="1.0"
   width="16"
   height="16"
   id="svg3426">
  <defs
     id="defs3428">
    <linearGradient
       id="linearGradient2490-113-580">
      <stop
         id="stop5567"
         style="stop-color:#71171c;stop-opacity:1"
         offset="0" />
      <stop
         id="stop5569"
         style="stop-color:#ed8137;stop-opacity:1"
         offset="1" />
    </linearGradient>
    <linearGradient
       x1="-51.786404"
       y1="53.623615"
       x2="-51.786404"
       y2="2.9062471"
       id="linearGradient2593"
       xlink:href="#linearGradient2490-113-580"
       gradientUnits="userSpaceOnUse"
       gradientTransform="matrix(0.2768636,0,0,0.3050233,19.641,-0.68561)" />
    <linearGradient
       id="linearGradient5344-867">
      <stop
         id="stop5559"
         style="stop-color:#f9c590;stop-opacity:1"
         offset="0" />
      <stop
         id="stop5561"
         style="stop-color:#f19860;stop-opacity:1"
         offset="0.39698008" />
      <stop
         id="stop5563"
         style="stop-color:#ce5d36;stop-opacity:1"
         offset="1" />
    </linearGradient>
    <radialGradient
       cx="14.239056"
       cy="11.49049"
       r="18.000002"
       fx="14.239056"
       fy="11.49049"
       id="radialGradient2591"
       xlink:href="#linearGradient5344-867"
       gradientUnits="userSpaceOnUse"
       gradientTransform="matrix(0,1.0834925,-1.816687,0,24.708827,-13.135239)" />
    <linearGradient
       id="linearGradient4000-159-371">
      <stop
         id="stop5573"
         style="stop-color:#000000;stop-opacity:1"
         offset="0" />
      <stop
         id="stop5575"
         style="stop-color:#000000;stop-opacity:0"
         offset="1" />
    </linearGradient>
    <linearGradient
       x1="75.854454"
       y1="28"
       x2="91"
       y2="12"
       id="linearGradient3424"
       xlink:href="#linearGradient4000-159-371"
       gradientUnits="userSpaceOnUse"
       gradientTransform="matrix(0.384083,0,0,0.2965012,-20.840188,3.1060156)"
       spreadMethod="reflect" />
    <linearGradient
       id="linearGradient5293-366-550">
      <stop
         id="stop5579"
         style="stop-color:#ffffff;stop-opacity:1"
         offset="0" />
      <stop
         id="stop5581"
         style="stop-color:#ffffff;stop-opacity:0"
         offset="1" />
    </linearGradient>
    <linearGradient
       x1="75.854454"
       y1="28"
       x2="91"
       y2="12"
       id="linearGradient3421"
       xlink:href="#linearGradient5293-366-550"
       gradientUnits="userSpaceOnUse"
       gradientTransform="matrix(0.384083,0,0,0.2965013,-20.79845,2.070172)"
       spreadMethod="reflect" />
    <linearGradient
       x1="53.39983"
       y1="70.079262"
       x2="106.99174"
       y2="-18.244389"
       id="linearGradient3418"
       xlink:href="#linearGradient2490-113-373"
       gradientUnits="userSpaceOnUse"
       gradientTransform="matrix(0.134217,0,0,0.1036118,0.4749174,8.0948122)"
       spreadMethod="reflect" />
    <linearGradient
       id="linearGradient3211">
      <stop
         id="stop3213"
         style="stop-color:#ffffff;stop-opacity:1"
         offset="0" />
      <stop
         id="stop3215"
         style="stop-color:#ffffff;stop-opacity:0"
         offset="1" />
    </linearGradient>
    <linearGradient
       x1="24"
       y1="1.9999999"
       x2="24"
       y2="46.01725"
       id="linearGradient2588"
       xlink:href="#linearGradient3211"
       gradientUnits="userSpaceOnUse"
       gradientTransform="matrix(0.2727267,0,0,0.302325,1.4545607,0.7441991)" />
    <linearGradient
       id="linearGradient8589">
      <stop
         id="stop8591"
         style="stop-color:#fefefe;stop-opacity:1"
         offset="0" />
      <stop
         id="stop8593"
         style="stop-color:#cbcbcb;stop-opacity:1"
         offset="1" />
    </linearGradient>
    <linearGradient
       x1="32.892288"
       y1="8.0590115"
       x2="36.358372"
       y2="5.4565363"
       id="linearGradient2584"
       xlink:href="#linearGradient8589"
       gradientUnits="userSpaceOnUse"
       gradientTransform="matrix(0.3091956,0,0,0.3766935,0.4761461,0.1071779)" />
    <linearGradient
       id="linearGradient8265-821-176-38-919-66-249">
      <stop
         id="stop2687"
         style="stop-color:#ffffff;stop-opacity:1"
         offset="0" />
      <stop
         id="stop2689"
         style="stop-color:#ffffff;stop-opacity:0"
         offset="1" />
    </linearGradient>
    <linearGradient
       x1="16.626165"
       y1="15.298182"
       x2="20.054544"
       y2="24.627615"
       id="linearGradient2581"
       xlink:href="#linearGradient8265-821-176-38-919-66-249"
       gradientUnits="userSpaceOnUse"
       gradientTransform="matrix(0.2394557,0,0,0.4823445,1.7530613,-1.8789938)" />
    <linearGradient
       id="linearGradient4267">
      <stop
         id="stop4269"
         style="stop-color:#c4c4c4;stop-opacity:1"
         offset="0" />
      <stop
         id="stop4271"
         style="stop-color:#c4c4c4;stop-opacity:0"
         offset="1" />
    </linearGradient>
    <linearGradient
       x1="35.516502"
       y1="4.8577352"
       x2="34.102982"
       y2="6.5436172"
       id="linearGradient2578"
       xlink:href="#linearGradient4267"
       gradientUnits="userSpaceOnUse"
       gradientTransform="matrix(0.3428665,0,0,0.3408721,-0.6875871,0.3295305)" />
    <linearGradient
       id="linearGradient2490-113-373">
      <stop
         id="stop5625"
         style="stop-color:#71171c;stop-opacity:1"
         offset="0" />
      <stop
         id="stop5627"
         style="stop-color:#ec7422;stop-opacity:1"
         offset="1" />
    </linearGradient>
    <linearGradient
       x1="24.239185"
       y1="42.236279"
       x2="24.239185"
       y2="1.5977496"
       id="linearGradient3370"
       xlink:href="#linearGradient2490-113-373"
       gradientUnits="userSpaceOnUse"
       gradientTransform="matrix(0.3535988,0,0,0.3671896,0.4593866,-0.7248253)" />
  </defs>
  <g
     id="layer1">
    <path
       d="M 1.5,0.4999664 C 4.0206756,0.4999664 7.4205035,0.4999664 9.9411815,0.4999664 C 10.383361,0.6617599 12.879694,2.6328115 13.500013,3.9090875 C 13.500013,7.8153335 13.500039,11.593785 13.500039,15.500034 C 9.8333455,15.500034 5.1666926,15.500034 1.5,15.500034 C 1.5,10.500011 1.5,5.4999875 1.5,0.4999664 z"
       id="path4160"
       style="fill:url(#radialGradient2591);fill-opacity:1;fill-rule:nonzero;stroke:url(#linearGradient2593);stroke-width:0.99992192;stroke-linecap:butt;stroke-linejoin:round;marker:none;marker-start:none;marker-mid:none;marker-end:none;stroke-miterlimit:4;stroke-dasharray:none;stroke-dashoffset:0;stroke-opacity:1;visibility:visible;display:inline;overflow:visible;enable-background:accumulate" />
    <path
       d="M 5.8541663,6.000001 C 4.5692508,7.6509237 3.2849156,9.3039421 2.0000001,10.954865 C 2.0000001,12.635859 2.0000001,14.319007 2.0000001,16.000001 C 5.0520903,16.000001 8.1041593,16.000001 11.156249,16.000001 C 12.000671,14.915043 12.130828,14.749656 12.999999,13.632899 C 12.999999,12.108475 12.999999,10.589906 12.999999,9.0591787 C 10.477954,7.979029 7.4919329,6.7014284 5.8541663,6.000001 z"
       id="path3743"
       style="opacity:0.1;fill:url(#linearGradient3424);fill-opacity:1;fill-rule:nonzero;stroke:none;stroke-width:0.91176528;stroke-linecap:butt;stroke-linejoin:miter;marker:none;marker-start:none;marker-mid:none;marker-end:none;stroke-miterlimit:4;stroke-dasharray:none;stroke-dashoffset:0;stroke-opacity:1;visibility:visible;display:inline;overflow:visible;enable-background:accumulate" />
    <path
       d="M 5.8541663,5 C 4.5692508,6.6509233 3.2849156,8.3039415 2.0000001,9.9548647 C 2.0000001,11.635857 2.0000001,13.319007 2.0000001,15 C 5.0520903,15 8.1041593,15 11.156249,15 C 12.000671,13.915042 12.130828,13.749656 12.999999,12.632899 C 12.999999,11.108473 12.999999,9.5899053 12.999999,8.0591775 C 10.477954,6.9790281 7.4919329,5.7014275 5.8541663,5 z"
       id="path3697"
       style="opacity:0.4;fill:url(#linearGradient3421);fill-opacity:1;fill-rule:nonzero;stroke:none;stroke-width:0.91176528;stroke-linecap:butt;stroke-linejoin:miter;marker:none;marker-start:none;marker-mid:none;marker-end:none;stroke-miterlimit:4;stroke-dasharray:none;stroke-dashoffset:0;stroke-opacity:1;visibility:visible;display:inline;overflow:visible;enable-background:accumulate" />
    <path
       d="M 8.4487927,10.033455 C 7.7336662,10.897209 8.0177096,11.982026 9.0828182,12.454922 C 10.147926,12.927818 11.592755,12.610599 12.307881,11.746844 C 13.023008,10.88309 12.738965,9.7982727 11.673856,9.3253767 C 10.608748,8.8524813 9.1639192,9.1697 8.4487927,10.033455 z M 10.378337,10.89015 L 11.601883,9.4123087 C 12.440163,9.7844947 12.780859,10.534976 12.454168,11.287948 L 10.378337,10.89015 z"
       id="path5975"
       style="opacity:0.3;fill:url(#linearGradient3418);fill-opacity:1;fill-rule:nonzero;stroke:none;stroke-width:0.91176528;stroke-linecap:butt;stroke-linejoin:miter;marker:none;marker-start:none;marker-mid:none;marker-end:none;stroke-miterlimit:4;stroke-dasharray:none;stroke-dashoffset:0;stroke-opacity:1;visibility:visible;display:inline;overflow:visible;enable-background:accumulate" />
    <path
       d="M 12.5,4.2150736 C 12.5,7.6004717 12.5,11.114602 12.5,14.500001 C 9.500001,14.500001 5.5000009,14.500001 2.5,14.500001 C 2.5,10.166664 2.5,5.8333326 2.5,1.5 C 4.5623569,1.5 7.6738997,1.5 9.7362577,1.5"
       id="path2435"
       style="opacity:0.4;fill:none;fill-opacity:1;stroke:url(#linearGradient2588);stroke-width:0.99999994;stroke-linecap:butt;stroke-linejoin:miter;stroke-miterlimit:4;stroke-dasharray:none;stroke-dashoffset:0;stroke-opacity:1;display:inline" />
    <path
       d="M 2.5238093,0.99999996 C 2.2344802,0.99999996 2,1.4723225 2,2.0551278 L 2,9.77264 C 2.0006633,9.8375644 2.0147975,9.898961 2.0389717,9.9419263 C 2.0631449,9.9848916 2.0951471,10.005497 2.1272107,9.9987385 L 12.902721,6.5620336 C 12.95815,6.5444258 12.999225,6.4489566 13,6.3359346 L 13,4.2589134 C 13,4.2589134 9.494977,0.99999996 9.494977,0.99999996 L 2.5238093,0.99999996 z"
       id="path3879"
       style="opacity:0.2;fill:url(#linearGradient2581);fill-opacity:1;fill-rule:evenodd;stroke:none;stroke-width:1.00213289;stroke-linecap:round;stroke-linejoin:round;stroke-miterlimit:4;stroke-dasharray:none;stroke-dashoffset:0;stroke-opacity:1" />
    <path
       d="M 9.7907032,0.49996655 C 10.273093,0.66176251 12.864657,2.504091 13.541387,3.7803849 C 13.541387,7.6866881 13.541387,4.0617877 13.541387,7.968091 C -0.32613212,13.329645 1.4602649,0.49996655 9.7907032,0.49996655 z"
       id="path3883"
       style="fill:none;stroke:url(#linearGradient2578);stroke-width:0.99992192;stroke-linecap:butt;stroke-linejoin:round;stroke-miterlimit:4;stroke-dasharray:none;stroke-dashoffset:0;stroke-opacity:1;display:inline" />
    <path
       d="M 6.6332092,8.7655188 C 7.1452782,8.7692868 7.7389919,8.7892548 8.1124116,8.3618548 C 8.3982387,7.9781108 8.401349,7.4242234 8.2454195,6.9842554 C 8.0434259,6.4817593 7.4632141,6.3770793 6.9948353,6.3911513 C 6.8742887,6.3911513 6.753749,6.3911513 6.6332092,6.3911513 C 6.6332092,7.1826074 6.6332092,7.9740628 6.6332092,8.7655188 z M 9.9997202,7.4962714 C 10.010421,8.2981188 9.7147961,9.1489347 9.0485228,9.6050479 C 8.3600856,10.106584 7.4946482,10.175696 6.6798042,10.155128 C 6.5783192,10.166632 6.6589963,10.367288 6.6332092,10.457392 C 6.6332092,11.304928 6.6332092,12.152464 6.6332092,13 C 6.0888035,13 5.5444057,13 5,13 C 5,10.333848 5,7.6676959 5,5.0015432 C 5.8468069,5.0081912 6.6942378,4.9867272 7.5405688,5.0153912 C 8.3515258,5.0675272 9.239164,5.3611353 9.6787554,6.1233353 C 9.9155652,6.5344954 9.9997782,7.0224634 9.9997202,7.4962714 L 9.9997202,7.4962714 z"
       id="path3402"
       style="font-size:31.58494568px;font-style:normal;font-variant:normal;font-weight:bold;font-stretch:normal;opacity:0.4;fill:#ffffff;fill-opacity:1;stroke:none;stroke-width:1px;stroke-linecap:butt;stroke-linejoin:miter;stroke-opacity:1;font-family:Droid Sans;-inkscape-font-specification:Droid Sans Bold" />
    <path
       d="M 6.6332092,7.7655188 C 7.1452782,7.7692868 7.7389919,7.7892548 8.1124116,7.3618548 C 8.3982387,6.9781108 8.401349,6.4242234 8.2454195,5.9842554 C 8.0434259,5.4817593 7.4632141,5.3770793 6.9948353,5.3911513 C 6.8742887,5.3911513 6.753749,5.3911513 6.6332092,5.3911513 C 6.6332092,6.1826074 6.6332092,6.9740628 6.6332092,7.7655188 z M 9.9997202,6.4962714 C 10.010421,7.2981188 9.7147961,8.1489347 9.0485228,8.6050479 C 8.3600856,9.1065839 7.4946482,9.1756959 6.6798042,9.1551279 C 6.5783192,9.1666319 6.6589963,9.3672878 6.6332092,9.4573918 C 6.6332092,10.304928 6.6332092,11.152464 6.6332092,12 C 6.0888035,12 5.5444057,12 5,12 C 5,9.3338478 5,6.6676959 5,4.0015432 C 5.8468069,4.0081912 6.6942378,3.9867272 7.5405688,4.0153912 C 8.3515258,4.0675272 9.239164,4.3611353 9.6787554,5.1233353 C 9.9155652,5.5344954 9.9997782,6.0224634 9.9997202,6.4962714 L 9.9997202,6.4962714 z"
       id="path2595"
       style="font-size:31.58494568px;font-style:normal;font-variant:normal;font-weight:bold;font-stretch:normal;fill:url(#linearGradient3370);fill-opacity:1;stroke:none;stroke-width:1px;stroke-linecap:butt;stroke-linejoin:miter;stroke-opacity:1;font-family:Droid Sans;-inkscape-font-specification:Droid Sans Bold" />
    <path
       d="M 9.2941205,0.8409023 C 10.142028,3.6448055 9,5.0341186 9,5.0341186 C 9,5.0341186 10.892807,3.7827125 13.171354,4.9318145 C 15.11421,5.9116229 13.207429,3.9237905 13.129895,3.8027685 C 12.586944,2.9552643 10.707454,1.1696619 10.025256,0.8725867 C 9.9696235,0.8483603 9.5814385,0.8409023 9.2941205,0.8409023 z"
       id="path3330"
       style="opacity:0.3;fill:#000000;fill-opacity:1;fill-rule:evenodd;stroke:none;stroke-width:1px;stroke-linecap:butt;stroke-linejoin:miter;stroke-opacity:1;display:inline" />
    <path
       d="M 9.2941205,0.8409023 C 10.281641,0.8409023 10,4.0219212 10,4.0219212 C 10,4.0219212 12.272472,3.5211898 13.171354,4.9318145 C 13.334236,5.1874273 13.207429,3.9237905 13.129895,3.8027685 C 12.586944,2.9552643 10.707454,1.1696619 10.025256,0.8725867 C 9.9696235,0.8483603 9.5814385,0.8409023 9.2941205,0.8409023 z"
       id="path4474"
       style="fill:url(#linearGradient2584);fill-opacity:1;fill-rule:evenodd;stroke:none;stroke-width:1px;stroke-linecap:butt;stroke-linejoin:miter;stroke-opacity:1;display:inline" />
  </g>
</svg>

<?xml version="1.0" encoding="UTF-8" standalone="no"?>
<!-- Created with Inkscape (http://www.inkscape.org/) -->
<svg id="svg3426" xmlns="http://www.w3.org/2000/svg" height="16" width="16" version="1.0" xmlns:xlink="http://www.w3.org/1999/xlink">
 <defs id="defs3428">
  <linearGradient id="linearGradient2593" y2="2.9062" gradientUnits="userSpaceOnUse" x2="-51.786" gradientTransform="matrix(.27686 0 0 .30502 19.641 -.68561)" y1="53.624" x1="-51.786">
   <stop id="stop5567" style="stop-color:#71171c" offset="0"/>
   <stop id="stop5569" style="stop-color:#ed8137" offset="1"/>
  </linearGradient>
  <radialGradient id="radialGradient2591" gradientUnits="userSpaceOnUse" cy="11.49" cx="14.239" gradientTransform="matrix(0 1.0835 -1.8167 0 24.709 -13.135)" r="18">
   <stop id="stop5559" style="stop-color:#f9c590" offset="0"/>
   <stop id="stop5561" style="stop-color:#f19860" offset=".39698"/>
   <stop id="stop5563" style="stop-color:#ce5d36" offset="1"/>
  </radialGradient>
  <linearGradient id="linearGradient3424" y2="12" spreadMethod="reflect" gradientUnits="userSpaceOnUse" x2="91" gradientTransform="matrix(.38408 0 0 .29650 -20.84 3.106)" y1="28" x1="75.854">
   <stop id="stop5573" offset="0"/>
   <stop id="stop5575" style="stop-opacity:0" offset="1"/>
  </linearGradient>
  <linearGradient id="linearGradient3421" y2="12" spreadMethod="reflect" gradientUnits="userSpaceOnUse" x2="91" gradientTransform="matrix(.38408 0 0 .29650 -20.798 2.0702)" y1="28" x1="75.854">
   <stop id="stop5579" style="stop-color:#fff" offset="0"/>
   <stop id="stop5581" style="stop-color:#fff;stop-opacity:0" offset="1"/>
  </linearGradient>
  <linearGradient id="linearGradient3418" y2="-18.244" xlink:href="#linearGradient2490-113-373" spreadMethod="reflect" gradientUnits="userSpaceOnUse" x2="106.99" gradientTransform="matrix(.13422 0 0 .10361 .47492 8.0948)" y1="70.079" x1="53.4"/>
  <linearGradient id="linearGradient2588" y2="46.017" gradientUnits="userSpaceOnUse" x2="24" gradientTransform="matrix(.27273 0 0 .30232 1.4546 .74420)" y1="2" x1="24">
   <stop id="stop3213" style="stop-color:#fff" offset="0"/>
   <stop id="stop3215" style="stop-color:#fff;stop-opacity:0" offset="1"/>
  </linearGradient>
  <linearGradient id="linearGradient2584" y2="5.4565" gradientUnits="userSpaceOnUse" x2="36.358" gradientTransform="matrix(.30920 0 0 .37669 .47615 .10718)" y1="8.059" x1="32.892">
   <stop id="stop8591" style="stop-color:#fefefe" offset="0"/>
   <stop id="stop8593" style="stop-color:#cbcbcb" offset="1"/>
  </linearGradient>
  <linearGradient id="linearGradient2581" y2="24.628" gradientUnits="userSpaceOnUse" x2="20.055" gradientTransform="matrix(.23946 0 0 .48234 1.7531 -1.879)" y1="15.298" x1="16.626">
   <stop id="stop2687" style="stop-color:#fff" offset="0"/>
   <stop id="stop2689" style="stop-color:#fff;stop-opacity:0" offset="1"/>
  </linearGradient>
  <linearGradient id="linearGradient2578" y2="6.5436" gradientUnits="userSpaceOnUse" x2="34.103" gradientTransform="matrix(.34287 0 0 .34087 -.68759 .32953)" y1="4.8577" x1="35.517">
   <stop id="stop4269" style="stop-color:#c4c4c4" offset="0"/>
   <stop id="stop4271" style="stop-color:#c4c4c4;stop-opacity:0" offset="1"/>
  </linearGradient>
  <linearGradient id="linearGradient2490-113-373">
   <stop id="stop5625" style="stop-color:#71171c" offset="0"/>
   <stop id="stop5627" style="stop-color:#ec7422" offset="1"/>
  </linearGradient>
  <linearGradient id="linearGradient3370" y2="1.5977" xlink:href="#linearGradient2490-113-373" gradientUnits="userSpaceOnUse" x2="24.239" gradientTransform="matrix(.35360 0 0 .36719 .45939 -.72483)" y1="42.236" x1="24.239"/>
 </defs>
 <g id="layer1">
  <path id="path4160" style="stroke-linejoin:round;stroke-width:.99992;stroke:url(#linearGradient2593);fill:url(#radialGradient2591)" d="m1.5 0.49997h8.4412c0.4418 0.16179 2.9388 2.1328 3.5588 3.4091v11.591h-12v-15z"/>
  <path id="path3743" style="opacity:.1;fill:url(#linearGradient3424)" d="m5.8542 6c-1.2849 1.6509-2.5693 3.3039-3.8542 4.955v5.045h9.156c0.845-1.085 0.975-1.25 1.844-2.367v-4.5738c-2.522-1.0802-5.5081-2.3578-7.1458-3.0592z"/>
  <path id="path3697" style="opacity:.4;fill:url(#linearGradient3421)" d="m5.8542 5c-1.2849 1.6509-2.5693 3.3039-3.8542 4.9549v5.0451h9.156c0.845-1.085 0.975-1.25 1.844-2.367v-4.5738c-2.522-1.0802-5.5081-2.3578-7.1458-3.0592z"/>
  <path id="path5975" style="opacity:.3;fill:url(#linearGradient3418)" d="m8.4488 10.033c-0.7151 0.864-0.4311 1.949 0.634 2.422 1.0652 0.473 2.5102 0.156 3.2252-0.708s0.431-1.9487-0.634-2.4216-2.5101-0.1557-3.2252 0.7076zm1.9292 0.857l1.224-1.4777c0.838 0.3722 1.179 1.1227 0.852 1.8757l-2.076-0.398z"/>
  <path id="path2435" style="opacity:.4;stroke:url(#linearGradient2588);fill:none" d="m12.5 4.2151v10.285h-10v-13h7.2363"/>
  <path id="path3879" style="opacity:.2;fill:url(#linearGradient2581);fill-rule:evenodd" d="m2.5238 1c-0.2893 0-0.5238 0.4723-0.5238 1.0551v7.7175c0.0007 0.065 0.0148 0.1264 0.039 0.1693 0.0241 0.043 0.0561 0.0631 0.0882 0.0568l10.776-3.4367c0.055-0.0176 0.096-0.113 0.097-0.2261v-2.077l-3.505-3.2589h-6.9712z"/>
  <path id="path3883" style="stroke-linejoin:round;stroke:url(#linearGradient2578);stroke-width:.99992;fill:none" d="m9.7907 0.49997c0.4823 0.16179 3.0743 2.0041 3.7503 3.2804v4.1877c-13.867 5.3619-12.081-7.4681-3.7503-7.4681z"/>
  <path id="path3402" style="opacity:.4;fill:#fff" d="m6.6332 8.7655c0.5121 0.0038 1.1058 0.0238 1.4792-0.4036 0.2858-0.3838 0.2889-0.9377 0.133-1.3776-0.202-0.5025-0.7822-0.6072-1.2506-0.5931h-0.3616v2.3743zm3.3665-1.2692c0.0103 0.8018-0.2849 1.6526-0.9512 2.1087-0.6884 0.502-1.5539 0.571-2.3687 0.55-0.1015 0.012-0.0208 0.212-0.0466 0.302v2.543h-1.6332v-7.9985c0.8468 0.0067 1.6942-0.0148 2.5406 0.0139 0.8109 0.0521 1.6986 0.3457 2.1382 1.1079 0.2368 0.4112 0.321 0.8992 0.3209 1.373z"/>
  <path id="path2595" style="fill:url(#linearGradient3370)" d="m6.6332 7.7655c0.5121 0.0038 1.1058 0.0238 1.4792-0.4036 0.2858-0.3838 0.2889-0.9377 0.133-1.3776-0.202-0.5025-0.7822-0.6072-1.2506-0.5931h-0.3616v2.3743zm3.3665-1.2692c0.0103 0.8018-0.2849 1.6526-0.9512 2.1087-0.6884 0.5016-1.5539 0.5707-2.3687 0.5501-0.1015 0.0115-0.0208 0.2122-0.0466 0.3023v2.5426h-1.6332v-7.9985c0.8468 0.0067 1.6942-0.0148 2.5406 0.0139 0.8109 0.0521 1.6986 0.3457 2.1382 1.1079 0.2368 0.4112 0.321 0.8992 0.3209 1.373z"/>
  <path id="path3330" style="opacity:.3;fill-rule:evenodd" d="m9.2941 0.8409c0.8479 2.8039-0.2941 4.1932-0.2941 4.1932s1.893-1.2514 4.171-0.1023c1.943 0.9798 0.036-1.008-0.041-1.129-0.543-0.8475-2.423-2.6331-3.105-2.9302-0.0554-0.02424-0.4436-0.0317-0.7309-0.0317z"/>
  <path id="path4474" style="fill:url(#linearGradient2584);fill-rule:evenodd" d="m9.2941 0.8409c0.9879 0 0.7059 3.181 0.7059 3.181s2.272-0.5007 3.171 0.9099c0.163 0.2556 0.036-1.008-0.041-1.129-0.543-0.8475-2.423-2.6331-3.105-2.9302-0.0554-0.02424-0.4436-0.0317-0.7309-0.0317z"/>
 </g>
</svg>
